X:1
T:Now She's Purring
R:reel
M:4/4
L:1/8
K:G
|:G2GA ~B2gB|BAGB AGED|GBAF GABd|egfa gedB|
|G2GA ~B2gB|BAGB AGED|GBAF GABd|1 egfa gedB:|2 egfa gfed|]
|:~g2ga bgaf|gaba gfed|~B2BA GABd|egfa gfed|
|~g2ga bgaf|gaba gfed|~B2BA GABd|1 egfa ~g2gd:|2 egfa gedB|]